small/extra/apps/standard/defcon.svg

<?xml version="1.0" encoding="UTF-8" standalone="no"?>
<!-- Created with Inkscape (http://www.inkscape.org/) -->
<svg id="svg2" xmlns:rdf="http://www.w3.org/1999/02/22-rdf-syntax-ns#" xmlns="http://www.w3.org/2000/svg" height="100%" width="100%" version="1.1" xmlns:cc="http://creativecommons.org/ns#" viewBox="0 0 512 512" xmlns:dc="http://purl.org/dc/elements/1.1/">
 <metadata id="metadata72">
  <rdf:RDF>
   <cc:Work rdf:about="">
    <dc:format>image/svg+xml</dc:format>
    <dc:type rdf:resource="http://purl.org/dc/dcmitype/StillImage"/>
   </cc:Work>
  </rdf:RDF>
 </metadata>
 <path id="path4" d="m26 0c-14.397 0-26 11.603-26 26v460c0 14.397 11.603 26 26 26h460c14.397 0 26-11.603 26-26v-460c0-14.397-11.6-26-26-26h-460" fill="#e49e0e"/>
 <path id="path6" opacity=".25" style="color:#000000" d="m249.44 40.969c-92.7 0.744-178.54 69.73-200.31 159.69-21.466 77.52 6.583 163.96 66.31 216.97 31.497 31.398 62.886 62.906 94.31 94.38h276.25c14.397 0 26-11.603 26-26v-270.59c-38.04-41.71-74.26-81.33-112.72-119.12-39.4-35.663-92.28-55.789-145.44-55.281-1.475-0.023-2.935-0.043-4.406-0.031"/>
 <text id="text8" style="word-spacing:0;letter-spacing:0" font-size="129.23px" line-height="125%" y="152.92999" x="-63.279999" font-family="Gentium Book Basic">
  <tspan id="tspan10" y="152.92999" x="-63.279999"/>
 </text>
 <text id="text12" style="text-anchor:middle" transform="scale(4.0128 .2492)" font-size="46.954px" y="264.54999" x="181.31" font-family="Arial"/>
 <text id="text14" style="word-spacing:0;letter-spacing:0" font-size="129.23px" line-height="125%" y="72.933998" x="517.98999" font-family="Gentium Book Basic">
  <tspan id="tspan16" y="72.933998" x="517.98999"/>
 </text>
 <text id="text18" style="text-anchor:middle" transform="scale(4.0128 .2492)" font-size="46.954px" y="-56.490002" x="326.16" font-family="Arial"/>
 <text id="text20" style="word-spacing:0;letter-spacing:0" font-size="129.23px" line-height="125%" y="-108.33" x="-553.59003" font-family="Gentium Book Basic">
  <tspan id="tspan22" y="-108.33" x="-553.59003"/>
 </text>
 <text id="text24" style="text-anchor:middle" transform="scale(4.0128 .2492)" font-size="46.954px" y="-783.84003" x="59.119999" font-family="Arial"/>
 <text id="text26" style="word-spacing:0;letter-spacing:0" font-size="129.23px" line-height="125%" y="-324.79999" x="544.46002" font-family="Gentium Book Basic">
  <tspan id="tspan28" y="-324.79999" x="544.46002"/>
 </text>
 <text id="text30" style="text-anchor:middle" transform="scale(4.0128 .2492)" font-size="46.954px" y="-1652.5" x="332.76001" font-family="Arial"/>
 <text id="text32" style="word-spacing:0;letter-spacing:0" font-size="129.23px" line-height="125%" y="-404.79999" x="1125.73" font-family="Gentium Book Basic">
  <tspan id="tspan34" y="-404.79999" x="1125.73"/>
 </text>
 <text id="text36" style="text-anchor:middle" transform="scale(4.0128 .2492)" font-size="46.954px" y="-1973.53" x="477.60999" font-family="Arial"/>
 <text id="text38" style="word-spacing:0;letter-spacing:0" font-size="129.23px" line-height="125%" y="-877.20001" x="736.60999" font-family="Gentium Book Basic">
  <tspan id="tspan40" y="-877.20001" x="736.60999"/>
 </text>
 <text id="text42" style="text-anchor:middle" transform="scale(4.0128 .2492)" font-size="46.954px" y="-3869.1699" x="380.64001" font-family="Arial"/>
 <text id="text44" style="word-spacing:0;letter-spacing:0" font-size="129.23px" line-height="125%" y="-957.21002" x="1317.87" font-family="Gentium Book Basic">
  <tspan id="tspan46" y="-957.21002" x="1317.87"/>
 </text>
 <text id="text48" style="text-anchor:middle" transform="scale(4.0128 .2492)" font-size="46.954px" y="-4190.21" x="525.48999" font-family="Arial"/>
 <text id="text50" style="word-spacing:0;letter-spacing:0" font-size="208.33px" line-height="125%" y="457.51001" x="-514.92999" font-family="Gentium Book Basic">
  <tspan id="tspan52" y="457.51001" x="-514.92999"/>
 </text>
 <g id="g54" style="color:#000000">
  <g id="g56" fill="#cd1d31">
   <path id="path58" d="m345.61 99.9-62.759 108.53c-16.627-9.549-37.679-10.369-55.48-0.09l-62.59-108.39c55.924-32.28 124.9-32.33 180.83-0.043"/>
   <path id="path60" d="m435.99 256.44c0 64.58-34.528 124.3-90.45 156.58l-62.56-108.35c17.801-10.277 27.62-28.92 27.664-48.1l125.34-0.132"/>
   <path id="path62" d="m285.25 239.11c9.598 16.624 3.936 37.897-12.689 47.49-16.624 9.598-37.922 3.887-47.521-12.733-9.598-16.624-3.866-37.878 12.759-47.48 16.624-9.598 37.847-3.913 47.45 12.714"/>
   <path id="path64" d="m199.72 256.44c-0.022 9.475 2.194 19.07 7.274 27.865 5.079 8.797 12.303 15.56 20.521 20.275l-62.829 108.5c-55.93-32.28-90.374-91.96-90.374-156.54l125.41-0.114"/>
  </g>
  <path id="path66" d="m444.85 154.24a215.49 215.49 0 0 0 -297.42 -84.379 215.49 215.49 0 0 0 215.48 373.23 215.49 215.49 0 0 0 81.94 -288.85m-99.23-54.33-62.76 108.53c-16.627-9.549-37.679-10.369-55.48-0.09l-62.59-108.4c55.92-32.28 124.9-32.33 180.83-0.04m90.37 156.54c0 64.58-34.528 124.3-90.45 156.58l-62.56-108.35c17.801-10.277 27.62-28.92 27.664-48.1l125.34-0.132m-150.73-17.34c9.598 16.624 3.936 37.897-12.689 47.49-16.624 9.598-37.922 3.887-47.521-12.733-9.598-16.624-3.866-37.878 12.759-47.48 16.624-9.598 37.847-3.913 47.45 12.714m-85.55 17.322c-0.022 9.475 2.194 19.07 7.274 27.865 5.078 8.797 12.303 15.56 20.521 20.275l-62.83 108.51c-55.91-32.27-90.37-91.96-90.37-156.52l125.41-0.114" fill="#fff"/>
 </g>
</svg>

<?xml version="1.0" encoding="UTF-8" standalone="no"?>
<!-- Created with Inkscape (http://www.inkscape.org/) -->

<svg
   xmlns:dc="http://purl.org/dc/elements/1.1/"
   xmlns:cc="http://creativecommons.org/ns#"
   xmlns:rdf="http://www.w3.org/1999/02/22-rdf-syntax-ns#"
   xmlns:svg="http://www.w3.org/2000/svg"
   xmlns="http://www.w3.org/2000/svg"
   xmlns:inkscape="http://www.inkscape.org/namespaces/inkscape"
   version="1.1"
   width="100%"
   height="100%"
   viewBox="0 0 512 512"
   id="svg2">
  <metadata
     id="metadata72">
    <rdf:RDF>
      <cc:Work
         rdf:about="">
        <dc:format>image/svg+xml</dc:format>
        <dc:type
           rdf:resource="http://purl.org/dc/dcmitype/StillImage" />
      </cc:Work>
    </rdf:RDF>
  </metadata>
  <defs
     id="defs70" />
  <path
     d="M 26,0 C 11.603,0 0,11.603 0,26 v 460 c 0,14.397 11.603,26 26,26 h 460 c 14.397,0 26,-11.603 26,-26 V 26 C 512,11.603 500.397,0 486,0 H 26"
     inkscape:connector-curvature="0"
     id="path4"
     style="fill:#e49e0e" />
  <path
     d="m 249.44,40.969 c -92.7,0.744 -178.54,69.73 -200.31,159.69 -21.466,77.52 6.583,163.96 66.31,216.97 31.497,31.398 62.886,62.906 94.31,94.38 H 486 c 14.397,0 26,-11.603 26,-26 V 215.419 C 473.96,173.711 437.74,134.089 399.28,96.299 359.88,60.637 307,40.511 253.84,41.019 c -1.475,-0.023 -2.935,-0.043 -4.406,-0.031"
     inkscape:connector-curvature="0"
     id="path6"
     style="opacity:0.25;color:#000000" />
  <text
     x="-63.279999"
     y="152.92999"
     id="text8"
     style="font-size:129.22999573px;line-height:125%;letter-spacing:0;word-spacing:0;font-family:Gentium Book Basic">
    <tspan
       x="-63.279999"
       y="152.92999"
       id="tspan10" />
  </text>
  <text
     x="181.31"
     y="264.54999"
     transform="scale(4.0128,0.2492)"
     id="text12"
     style="font-size:46.95399857px;text-anchor:middle;font-family:Arial" />
  <text
     x="517.98999"
     y="72.933998"
     id="text14"
     style="font-size:129.22999573px;line-height:125%;letter-spacing:0;word-spacing:0;font-family:Gentium Book Basic">
    <tspan
       x="517.98999"
       y="72.933998"
       id="tspan16" />
  </text>
  <text
     x="326.16"
     y="-56.490002"
     transform="scale(4.0128,0.2492)"
     id="text18"
     style="font-size:46.95399857px;text-anchor:middle;font-family:Arial" />
  <text
     x="-553.59003"
     y="-108.33"
     id="text20"
     style="font-size:129.22999573px;line-height:125%;letter-spacing:0;word-spacing:0;font-family:Gentium Book Basic">
    <tspan
       x="-553.59003"
       y="-108.33"
       id="tspan22" />
  </text>
  <text
     x="59.119999"
     y="-783.84003"
     transform="scale(4.0128,0.2492)"
     id="text24"
     style="font-size:46.95399857px;text-anchor:middle;font-family:Arial" />
  <text
     x="544.46002"
     y="-324.79999"
     id="text26"
     style="font-size:129.22999573px;line-height:125%;letter-spacing:0;word-spacing:0;font-family:Gentium Book Basic">
    <tspan
       x="544.46002"
       y="-324.79999"
       id="tspan28" />
  </text>
  <text
     x="332.76001"
     y="-1652.5"
     transform="scale(4.0128,0.2492)"
     id="text30"
     style="font-size:46.95399857px;text-anchor:middle;font-family:Arial" />
  <text
     x="1125.73"
     y="-404.79999"
     id="text32"
     style="font-size:129.22999573px;line-height:125%;letter-spacing:0;word-spacing:0;font-family:Gentium Book Basic">
    <tspan
       x="1125.73"
       y="-404.79999"
       id="tspan34" />
  </text>
  <text
     x="477.60999"
     y="-1973.53"
     transform="scale(4.0128,0.2492)"
     id="text36"
     style="font-size:46.95399857px;text-anchor:middle;font-family:Arial" />
  <text
     x="736.60999"
     y="-877.20001"
     id="text38"
     style="font-size:129.22999573px;line-height:125%;letter-spacing:0;word-spacing:0;font-family:Gentium Book Basic">
    <tspan
       x="736.60999"
       y="-877.20001"
       id="tspan40" />
  </text>
  <text
     x="380.64001"
     y="-3869.1699"
     transform="scale(4.0128,0.2492)"
     id="text42"
     style="font-size:46.95399857px;text-anchor:middle;font-family:Arial" />
  <text
     x="1317.87"
     y="-957.21002"
     id="text44"
     style="font-size:129.22999573px;line-height:125%;letter-spacing:0;word-spacing:0;font-family:Gentium Book Basic">
    <tspan
       x="1317.87"
       y="-957.21002"
       id="tspan46" />
  </text>
  <text
     x="525.48999"
     y="-4190.21"
     transform="scale(4.0128,0.2492)"
     id="text48"
     style="font-size:46.95399857px;text-anchor:middle;font-family:Arial" />
  <text
     x="-514.92999"
     y="457.51001"
     id="text50"
     style="font-size:208.33000183px;line-height:125%;letter-spacing:0;word-spacing:0;font-family:Gentium Book Basic">
    <tspan
       x="-514.92999"
       y="457.51001"
       id="tspan52" />
  </text>
  <g
     id="g54"
     style="color:#000000">
    <g
       id="g56"
       style="fill:#cd1d31">
      <path
         d="m 345.61,99.9 -62.759,108.53 c -16.627,-9.549 -37.679,-10.369 -55.48,-0.09 L 164.781,99.95 c 55.924,-32.28 124.9,-32.33 180.83,-0.043"
         inkscape:connector-curvature="0"
         id="path58" />
      <path
         d="m 435.99,256.44 c 0,64.58 -34.528,124.3 -90.45,156.58 L 282.98,304.67 c 17.801,-10.277 27.62,-28.92 27.664,-48.1 l 125.34,-0.132"
         inkscape:connector-curvature="0"
         id="path60" />
      <path
         d="m 285.25,239.11 c 9.598,16.624 3.936,37.897 -12.689,47.49 -16.624,9.598 -37.922,3.887 -47.521,-12.733 -9.598,-16.624 -3.866,-37.878 12.759,-47.48 16.624,-9.598 37.847,-3.913 47.45,12.714"
         inkscape:connector-curvature="0"
         id="path62" />
      <path
         d="m 199.72,256.44 c -0.022,9.475 2.194,19.07 7.274,27.865 5.079,8.797 12.303,15.56 20.521,20.275 l -62.829,108.5 C 108.762,380.8 74.316,321.12 74.316,256.54 l 125.41,-0.114"
         inkscape:connector-curvature="0"
         id="path64" />
    </g>
    <path
       d="M 444.8467,154.24307 A 215.49478,215.49478 0 0 0 147.4253,69.861161 215.49478,215.49478 0 0 0 362.9113,443.09388 215.49478,215.49478 0 0 0 444.8467,154.24307 M 345.62,99.91 282.86,208.44 c -16.627,-9.549 -37.679,-10.369 -55.48,-0.09 L 164.79,99.95 c 55.92,-32.28 124.9,-32.33 180.83,-0.04 m 90.37,156.54 c 0,64.58 -34.528,124.3 -90.45,156.58 L 282.98,304.68 c 17.801,-10.277 27.62,-28.92 27.664,-48.1 l 125.34,-0.132 M 285.25,239.11 c 9.598,16.624 3.936,37.897 -12.689,47.49 -16.624,9.598 -37.922,3.887 -47.521,-12.733 -9.598,-16.624 -3.866,-37.878 12.759,-47.48 16.624,-9.598 37.847,-3.913 47.45,12.714 m -85.55,17.322 c -0.022,9.475 2.194,19.07 7.274,27.865 5.078,8.797 12.303,15.56 20.521,20.275 L 164.67,413.07 C 108.76,380.8 74.3,321.11 74.3,256.55 l 125.41,-0.114"
       inkscape:connector-curvature="0"
       id="path66"
       style="fill:#ffffff" />
  </g>
</svg>
